src/objects/mail/1F4E6.svg

<svg id="emoji" viewBox="0 0 72 72" xmlns="http://www.w3.org/2000/svg">
  <g id="grid">
    <path fill="#b3b3b3" d="M68,4V68H4V4H68m4-4H0V72H72V0Z"/>
    <path fill="none" stroke="#00a5ff" stroke-miterlimit="10" stroke-width="0.1" d="M12.923,10.9583H59.0769A1.9231,1.9231,0,0,1,61,12.8814V59.0352a1.9231,1.9231,0,0,1-1.9231,1.9231H12.9231A1.9231,1.9231,0,0,1,11,59.0352V12.8813A1.923,1.923,0,0,1,12.923,10.9583Z"/>
    <rect x="16" y="4" rx="2.2537" width="40" height="64" fill="none" stroke="#00a5ff" stroke-miterlimit="10" stroke-width="0.1"/>
    <rect x="16" y="4" rx="2.2537" width="40" height="64" transform="translate(72) rotate(90)" fill="none" stroke="#00a5ff" stroke-miterlimit="10" stroke-width="0.1"/>
    <circle cx="36" cy="36" r="29" fill="none" stroke="#00a5ff" stroke-miterlimit="10" stroke-width="0.1"/>
  </g>
  <g id="color">
    <path fill="#f4aa41" stroke="none" stroke-linecap="round" stroke-linejoin="round" stroke-miterlimit="10" stroke-width="2" d="M61.6649,11.98v48c0,0.55-0.45,1-1,1h-48c-0.55,0-1-0.45-1-1v-48c0-0.55,0.45-1,1-1h48C61.2149,10.98,61.6649,11.43,61.6649,11.98z"/>
    <path fill="#d0cfce" stroke="none" stroke-linecap="round" stroke-linejoin="round" stroke-miterlimit="10" stroke-width="2" d="M44.8349,58.6251V60.98h-16.33v-2.3549c0-1.123,1.35-2.0418,3-2.0418h10.33C43.4849,56.5833,44.8349,57.5022,44.8349,58.6251z"/>
    <path fill="#d0cfce" stroke="none" stroke-linecap="round" stroke-linejoin="round" stroke-miterlimit="10" stroke-width="2" d="M44.7761,11.9655v5.171c0,1.0639-1.35,1.9343-3,1.9343h-10.33c-1.65,0-3-0.8704-3-1.9343v-5.171"/>
  </g>
  <g id="hair"/>
  <g id="skin"/>
  <g id="skin-shadow"/>
  <g id="line">
    <path fill="none" stroke="#000000" stroke-linecap="round" stroke-linejoin="round" stroke-miterlimit="10" stroke-width="2" d="M61.6649,11.98v48c0,0.55-0.45,1-1,1h-48c-0.55,0-1-0.45-1-1v-48c0-0.55,0.45-1,1-1h48C61.2149,10.98,61.6649,11.43,61.6649,11.98z"/>
    <path fill="#000000" stroke="#000000" stroke-miterlimit="10" stroke-width="2" d="M41.8989,29.4378h-10.458 c-1.6157,0-2.9377-1.3219-2.9377-2.9377v0c0-1.6157,1.3219-2.9377,2.9377-2.9377h10.458c1.6157,0,2.9377,1.3219,2.9377,2.9377v0 C44.8366,28.1159,43.5146,29.4378,41.8989,29.4378z"/>
    <path fill="none" stroke="#000000" stroke-linecap="round" stroke-linejoin="round" stroke-miterlimit="10" stroke-width="2" d="M44.8349,58.6251V60.98h-16.33v-2.3549c0-1.123,1.35-2.0418,3-2.0418h10.33C43.4849,56.5833,44.8349,57.5022,44.8349,58.6251z"/>
    <path fill="none" stroke="#000000" stroke-linecap="round" stroke-linejoin="round" stroke-miterlimit="10" stroke-width="2" d="M44.7761,11.9655v5.171c0,1.0639-1.35,1.9343-3,1.9343h-10.33c-1.65,0-3-0.8704-3-1.9343v-5.171"/>
  </g>
</svg>

<svg viewBox="0 0 72 72" xmlns="http://www.w3.org/2000/svg"><path fill="#b3b3b3" d="M68 4v64H4V4h64m4-4H0v72h72V0z"/><path fill="none" stroke="#00a5ff" stroke-miterlimit="10" stroke-width=".1" d="M12.923 10.958h46.154A1.923 1.923 0 0161 12.881v46.154a1.923 1.923 0 01-1.923 1.923H12.923A1.923 1.923 0 0111 59.035V12.881a1.923 1.923 0 011.923-1.923z"/><rect x="16" y="4" rx="2.254" width="40" height="64" fill="none" stroke="#00a5ff" stroke-miterlimit="10" stroke-width=".1"/><rect x="16" y="4" rx="2.254" width="40" height="64" transform="rotate(90 36 36)" fill="none" stroke="#00a5ff" stroke-miterlimit="10" stroke-width=".1"/><circle cx="36" cy="36" r="29" fill="none" stroke="#00a5ff" stroke-miterlimit="10" stroke-width=".1"/><g stroke-linecap="round" stroke-miterlimit="10" stroke-width="6" stroke="#fff" fill="none" stroke-linejoin="round"><path d="M61.665 11.98v48c0 .55-.45 1-1 1h-48c-.55 0-1-.45-1-1v-48c0-.55.45-1 1-1h48c.55 0 1 .45 1 1z"/><path d="M41.899 29.438H31.44a2.946 2.946 0 01-2.938-2.938v0a2.946 2.946 0 012.938-2.938h10.458a2.946 2.946 0 012.938 2.938v0a2.946 2.946 0 01-2.938 2.938zm2.936 29.187v2.355h-16.33v-2.355c0-1.123 1.35-2.042 3-2.042h10.33c1.65 0 3 .92 3 2.042zm-.059-46.659v5.17c0 1.064-1.35 1.935-3 1.935h-10.33c-1.65 0-3-.87-3-1.934v-5.171"/></g><path fill="#f4aa41" d="M61.665 11.98v48c0 .55-.45 1-1 1h-48c-.55 0-1-.45-1-1v-48c0-.55.45-1 1-1h48c.55 0 1 .45 1 1z"/><path fill="#d0cfce" d="M44.835 58.625v2.355h-16.33v-2.355c0-1.123 1.35-2.042 3-2.042h10.33c1.65 0 3 .92 3 2.042zm-.059-46.659v5.17c0 1.064-1.35 1.935-3 1.935h-10.33c-1.65 0-3-.87-3-1.934v-5.171"/><g stroke="#000" stroke-miterlimit="10" stroke-width="2"><path fill="none" stroke-linecap="round" stroke-linejoin="round" d="M61.665 11.98v48c0 .55-.45 1-1 1h-48c-.55 0-1-.45-1-1v-48c0-.55.45-1 1-1h48c.55 0 1 .45 1 1z"/><path d="M41.899 29.438H31.44a2.946 2.946 0 01-2.938-2.938v0a2.946 2.946 0 012.938-2.938h10.458a2.946 2.946 0 012.938 2.938v0a2.946 2.946 0 01-2.938 2.938z"/><path fill="none" stroke-linecap="round" stroke-linejoin="round" d="M44.835 58.625v2.355h-16.33v-2.355c0-1.123 1.35-2.042 3-2.042h10.33c1.65 0 3 .92 3 2.042zm-.059-46.659v5.17c0 1.064-1.35 1.935-3 1.935h-10.33c-1.65 0-3-.87-3-1.934v-5.171"/></g></svg>
